assets/icons/social - tiktok.svg

<svg id="Layer_1" data-name="Layer 1" xmlns="http://www.w3.org/2000/svg" xmlns:xlink="http://www.w3.org/1999/xlink" viewBox="0 0 512 512"><defs><linearGradient id="linear-gradient" x1="153.06" y1="358.83" x2="368.04" y2="143.84" gradientTransform="translate(0 18)" gradientUnits="userSpaceOnUse"><stop offset="0" stop-color="#b5053c"/><stop offset="0.23" stop-color="#c90441"/><stop offset="0.74" stop-color="#f0014b"/><stop offset="1" stop-color="#ff004f"/></linearGradient><linearGradient id="linear-gradient-2" x1="136.15" y1="348.04" x2="362.68" y2="121.51" gradientTransform="translate(0 18)" gradientUnits="userSpaceOnUse"><stop offset="0" stop-color="#00b2c9"/><stop offset="0.28" stop-color="#00c8d4"/><stop offset="0.74" stop-color="#00e6e4"/><stop offset="1" stop-color="#00f1ea"/></linearGradient><linearGradient id="linear-gradient-3" x1="9.24" y1="488.83" x2="510.67" y2="-12.59" gradientTransform="translate(0 18)" gradientUnits="userSpaceOnUse"><stop offset="0" stop-color="#dde3e4"/><stop offset="1" stop-color="#fcf7f7"/></linearGradient></defs><path d="M256,0C114.6,0,0,114.6,0,256S114.6,512,256,512,512,397.4,512,256,397.4,0,256,0Z" style="fill:#2c2c2c"/><path d="M393.7,187.5a72.38,72.38,0,0,1-72.4-72.4H269.6V317.5a44,44,0,1,1-43.9-44,43.26,43.26,0,0,1,12.4,1.8V225a93.28,93.28,0,1,0,80,104.9,86.53,86.53,0,0,0,.8-12.5l1.5-102.3A122.9,122.9,0,0,0,393.7,239Z" style="fill:url(#linear-gradient)"/><path d="M380.1,173.4A72.38,72.38,0,0,1,307.7,101H256V303.4a44,44,0,1,1-43.9-44,43.26,43.26,0,0,1,12.4,1.8V210.9a93.28,93.28,0,1,0,80,104.9,86.53,86.53,0,0,0,.8-12.5L306.8,201a122.9,122.9,0,0,0,73.3,23.9Z" style="fill:url(#linear-gradient-2)"/><path d="M380.1,186.2A72,72,0,0,1,335.5,158a72.8,72.8,0,0,1-26.4-42.9H269.7V317.5a44,44,0,0,1-81.6,22.8,44,44,0,0,1,36.4-79.1v-37A93.23,93.23,0,0,0,152.3,375a93.36,93.36,0,0,0,153.1-71.7L306.9,201a122.9,122.9,0,0,0,73.3,23.9Z" style="fill:url(#linear-gradient-3)"/></svg>

<?xml version="1.0" encoding="utf-8"?>
<!-- Generator: Adobe Illustrator 24.3.0, SVG Export Plug-In . SVG Version: 6.00 Build 0)  -->
<svg version="1.1" id="Layer_1" xmlns="http://www.w3.org/2000/svg" xmlns:xlink="http://www.w3.org/1999/xlink" x="0px" y="0px"
	 viewBox="0 0 512 512" style="enable-background:new 0 0 512 512;" xml:space="preserve">
<style type="text/css">
	.st0{fill:#2C2C2C;}
	.st1{fill:url(#SVGID_1_);}
	.st2{fill:url(#SVGID_2_);}
	.st3{fill:url(#SVGID_3_);}
</style>
<path class="st0" d="M256,0C114.6,0,0,114.6,0,256s114.6,256,256,256s256-114.6,256-256S397.4,0,256,0z"/>
<linearGradient id="SVGID_1_" gradientUnits="userSpaceOnUse" x1="153.0506" y1="137.0238" x2="368.1119" y2="352.086" gradientTransform="matrix(1 0 0 -1 0 514)">
	<stop  offset="0" style="stop-color:#B5053C"/>
	<stop  offset="0.233" style="stop-color:#C90441"/>
	<stop  offset="0.737" style="stop-color:#F0014B"/>
	<stop  offset="1" style="stop-color:#FF004F"/>
</linearGradient>
<path class="st1" d="M393.7,187.5c-40,0-72.4-32.4-72.4-72.4c0,0,0,0,0,0h-51.7v202.4c0,24.3-19.7,43.9-44,43.9
	c-24.3,0-43.9-19.7-43.9-44s19.7-43.9,44-43.9c4.2,0,8.4,0.6,12.4,1.8v-50.3c-51.1-6.9-98.1,28.9-104.9,80s28.9,98.1,80,104.9
	s98.1-28.9,104.9-80c0.6-4.1,0.8-8.3,0.8-12.5l1.5-102.3c21.2,15.6,46.9,24,73.3,23.9L393.7,187.5z"/>
<linearGradient id="SVGID_2_" gradientUnits="userSpaceOnUse" x1="136.1928" y1="147.9151" x2="362.7228" y2="374.4442" gradientTransform="matrix(1 0 0 -1 0 514)">
	<stop  offset="0" style="stop-color:#00B2C9"/>
	<stop  offset="0.283" style="stop-color:#00C8D4"/>
	<stop  offset="0.741" style="stop-color:#00E6E4"/>
	<stop  offset="1" style="stop-color:#00F1EA"/>
</linearGradient>
<path class="st2" d="M380.1,173.4c-40,0-72.4-32.4-72.4-72.4H256v202.4c0,24.3-19.7,43.9-44,43.9c-24.3,0-43.9-19.7-43.9-44
	c0-24.3,19.7-43.9,44-43.9c4.2,0,8.4,0.6,12.4,1.8v-50.3c-51.1-6.9-98.1,28.9-104.9,80s28.9,98.1,80,104.9s98.1-28.9,104.9-80
	c0.6-4.1,0.8-8.3,0.8-12.5l1.5-102.3c21.2,15.6,46.9,24,73.3,23.9L380.1,173.4z"/>
<linearGradient id="SVGID_3_" gradientUnits="userSpaceOnUse" x1="9.2812" y1="7.1248" x2="510.7061" y2="508.5498" gradientTransform="matrix(1 0 0 -1 0 514)">
	<stop  offset="0" style="stop-color:#DDE3E4"/>
	<stop  offset="1" style="stop-color:#FCF7F7"/>
</linearGradient>
<path class="st3" d="M380.1,186.2c-17.9-3.4-33.8-13.5-44.6-28.2c-13.6-10.7-23-25.9-26.4-42.9h-39.4v202.4c0,24.3-19.7,44-44,44
	c-15.4,0-29.7-8-37.6-21.2c-20.4-13.3-26.1-40.5-12.9-60.9c10.6-16.3,30.7-23.7,49.3-18.2v-37c-51.5,0.7-92.8,43-92.1,94.5
	c0.3,20.5,7.2,40.2,19.9,56.3c39.6,33,98.4,27.7,131.4-11.9c14-16.8,21.7-37.9,21.7-59.8l1.5-102.3c21.2,15.6,46.9,24,73.3,23.9
	L380.1,186.2z"/>
</svg>
